usr/share/icons/biglinux-icons-material/22/actions/format-text-underline.svg

<svg xmlns="http://www.w3.org/2000/svg" viewBox="0 0 22 22"><path d="M6 3v7c0 2.77 2.23 5 5 5s5-2.23 5-5V3h-2v8c0 1.108-.892 2-2 2s-2-.892-2-2V3H6zM4 18v1h14v-1H4z" style="fill:currentColor;fill-opacity:1;stroke:none;color:#dedede"/></svg>

<svg xmlns="http://www.w3.org/2000/svg" viewBox="0 0 22 22">
  <defs id="defs3051">
    <style type="text/css" id="current-color-scheme">
      .ColorScheme-Text {
        color:#363636;
      }
      </style>
  </defs>
 <path 
    style="fill:currentColor;fill-opacity:1;stroke:none" 
    d="M 6 3 L 6 10 C 6 12.77 8.23 15 11 15 C 13.77 15 16 12.77 16 10 L 16 3 L 14 3 L 14 11 C 14 12.108 13.108 13 12 13 C 10.892 13 10 12.108 10 11 L 10 3 L 6 3 z M 4 18 L 4 19 L 18 19 L 18 18 L 4 18 z "
    class="ColorScheme-Text"
    />  
</svg>
